src/assets/images/left-panel/Customer-Purchase-Order.svg

<?xml version="1.0" encoding="UTF-8"?>
<svg enable-background="new 0 0 511.998 511.998" version="1.1" viewBox="0 0 511.998 511.998" xml:space="preserve" xmlns="http://www.w3.org/2000/svg">
		<path d="m353.74 30.632l-49.356-30.632-48.396 30.041-48.398-30.041-49.349 30.631-62.462-29.726v510.19l62.471-29.725 49.356 30.631 48.396-30.04 48.398 30.04 49.349-30.631 62.462 29.726v-510.19l-62.471 29.725zm-197.88 150.27h171.23v30.04h-171.23v-30.04zm141.19 150.2h-141.19v-30.04h141.19v30.04zm60.081-60.081h-201.27v-30.04h201.27v30.04zm0-120.16h-201.27v-30.041h201.27v30.041z"/>
</svg>

<?xml version="1.0" encoding="iso-8859-1"?>
<!-- Generator: Adobe Illustrator 19.0.0, SVG Export Plug-In . SVG Version: 6.00 Build 0)  -->
<svg version="1.1" id="Capa_1" xmlns="http://www.w3.org/2000/svg" xmlns:xlink="http://www.w3.org/1999/xlink" x="0px" y="0px"
	 viewBox="0 0 511.998 511.998" style="enable-background:new 0 0 511.998 511.998;" xml:space="preserve">
	 <!-- <style type="text/css">
	 path{fill:#428BCA;}
	 </style> -->
<g>
	<g>
		<path d="M353.744,30.632L304.388,0l-48.396,30.041L207.594,0l-49.349,30.631L95.783,0.905v510.187l62.471-29.725l49.356,30.631
			l48.396-30.04l48.398,30.04l49.349-30.631l62.462,29.726V0.907L353.744,30.632z M155.864,180.899h171.231v30.04H155.864V180.899z
			 M297.054,331.101h-141.19v-30.04h141.19V331.101z M357.135,271.02H155.864V240.98h201.271V271.02z M357.135,150.858H155.864
			v-30.041h201.271V150.858z"/>
	</g>
</g>
<g>
</g>
<g>
</g>
<g>
</g>
<g>
</g>
<g>
</g>
<g>
</g>
<g>
</g>
<g>
</g>
<g>
</g>
<g>
</g>
<g>
</g>
<g>
</g>
<g>
</g>
<g>
</g>
<g>
</g>
</svg>
